X:43
T:Warman's Fancy. Ru2.043
%%VWML:RutherfordVol2-2249-p22-0
F:http://www.vwml.org/record/RutherfordVol2/2249/p22
L:1/8
B:RUTHERFORD Complete Collection of 200 Country Dances Vol.2; 1759.
Z:vmp. Peter Dunk 2015
Q:1/2=70
K:F
e|fcAd cAFA|Bdgf edce|facA facA|BdcB AGF:|
|:c|AFAc fdAF|Bdgf edce|f2cA Bcde|fdcB AFF:|
W:
W:Foot it & cast off 2 Cu: .| the 2nd Cu: do the same :|.
W:First Cu: cross over 2 Cu: .|. lead thro the 3d Cu: cast up & turn :|
T:Limerick Lasses. Ru2.044
M:6/8
L:1/8
B:RUTHERFORD Complete Collection of 200 Country Dances Vol.2; 1759.
Z:vmp. Peter Dunk 2015
Q:3/8=100
K:A
f/g/|aed cBA|aed cBA|def eac|dBB B2 f/g/|
aed cBA|def efg|agf eca|ecA A2:|
|:e/d/|cAc dBd|fdf efg|agf edc|dBB B2 f/g/|
aec dfd|ege fbg|agf eca|ecA A2:|
W:
W:Turn right hands anc cast off one Cu: .| turn left
W:hands & cast up :| Gallop down one Cu: up again &
W:cast off .|. Hands round 6 :|
